X: 19480
T: Jackson's Morning Brush
R: jig
M: 6/8
K: Dmajor
z|DFE EFD|DF/E/D AFA|BGB def|g~g2 ecA|
DFE EFD|DF/E/D AFA|BGB d2 e|fdc d2:|
g|fed faf|ede fdB|AFA def|g~g2 efg|
fed faf|ede fdB|AFA d2 e|fdc d2:|

